X: 23
T: ROXBURGH CASTLE
S: "Community Dances Manual 6", EFDSS, Jack Hamilton ed., 1981 p.3
R: reel
Z: 2010 John Chambers <jc:trillian.mit.edu>
M: 4/4
L: 1/8
K: A
"A"|: E2 |\
"A"A2Ac ecAc | "D"d2df "A"ecAc | "D"d2fd "A"c2ec | "D"B2BA "E7"BdcB |
"A"A2Ac ecAc | "D"f2df "E7"edcd | "A"eagf "E7"edcB | "A"c2A2 A2 :|
"B"|: e2 |\
"A"aece fece | "A"aece fedc | "D"d2fd "A"c2ec | "D"B2BA "E7"BdcB |
"A"A2Ac ecAc | "D"f2df "E7"edcd | "A"eagf "E7"edcB | "A"c2A2 A2 :|

%%sep 2 1 500
%%sep 1 1 500

